!! 00000] TT[00
!! NN
!!!OTL: Yueliang wanwan zhao jiuzhou
!!!ARE: Asia, China,ÿJiangsu, Suzhou
!! Ethnic Group: Han
!! III, 511
!!!SCT: C0334
!!!YEM: Copyright 1995, estate of Helmut Schaffrath.
**kern
*ICvox
*Ivox
!! Mixed meters:  2/4; 3/4
*M1/4
*k[]
*C:
{8a
8a
8a
8g
=1
2a
=2
8a
8cc
8a
8g
=3
8g
4e
8d
=4
2e}
=5
{8.e
16g
8a
8cc
=6
8g
8a
8e
8g
=7
8g
4c
8d
=8
8e
16e
16g
8d
8c
=9
8c
4A
8r}
=10
{8e
8e
16e
16d
8c
=11
2d
=12
8e
8g
8d
8c
=13
8A
8c
8G
8A
=14
8c
4c
8d
=15
2c}
=16
{8e
8g
8a
8cc
=17
8g
8a
8e
8g
=18
8g
4c
8d
=19
8e
8g
8d
8c
=20
8c
4A
8G
=21
4.A}
{8g
=22
8a
8a
8r
8g
=23
8cc
8cc
8r
8g
=24
2a}
==
!!!AGN: Xiaodiao, Shidiao, Yeyeyou
!! Von Leuten, die nach dem Sueden gefluechtet waren. Frueher
!!    vielleicht einmal ein Berglied. Der Text existiert seit der Sung-
!!    Dynastie, die Weise existiert im Ping Tang in Suzhou, Kunst von
!!    Sprache und Musik).
!!    Vor- und Zwischenspiele weggelassen.
!!!ONB: ESAC (Essen Associative Code) Database: CHINA
!!!AMT: irregular
!!!AIN: vox
!!!EED: Helmut Schaffrath
!!!EEV: 1.0
*-
